X:1
T:Speechless treble
T:Speechless
L:1/8
M:4/4
K:C
V:1 treble nm="Piano" snm="Pno."
V:1
"^Left hand thumb on E, right hand thumb on F" (3A,2 C2 E2 F2 EC | B,2 CD C3 B, | %2
w: Here comes a wave meant to|wash me a- way, A|
w: A C E F E C|B C D C B|
w: la do mi fa mi do|ti do re do ti|
w: 5 3 1 1 1 3|4 3 2 3 4|
 (3A,2 B,2 C2 B,C D2 | D2 C6 | (3A,2 C2 E2 F2 EC | B,2 CD C3 B, | A, C2 G- G2 EC | E2 D6 | %8
w: tide that is tak- ing me|und- er.|Swal- low- ing sand left with|noth- ing to say, My|voice drowned out * in the|thund- er.|
w: A B C B C D|D C|A C E F E C|B C D C B|A C G * E C|E D|
w: la ti do ti do re|re do|la do mi fa mi do|ti do re do ti|la do so * mi do|mi re|
w: 5 4 3 4 3 2|2 3|5 3 1 1 1 3|4 3 2 3 4|5 3 2 * 1 3|1 2|
 z2 z C E2 G2 | A6- AA | G2 A2 G3 E | D4 G4 | z2 z C EG E2 | A6- AG | A2 GE A2 c2 | B8 | %16
w: But I won't|cry, * And|I won't start to|crum- ble,|When- ev- er they|try * to|shut me or cut me|down.|
w: C E G|A * A|G A G E|D G|C E G E|A * G|A G E A C|B|
w: do mi so|la * la|so la so mi|re so|do mi so mi|la * so|la so mi la do|ti|
w: 3 1 2|3 * 3|2 3 2 1|2 2|3 1 2 1|3 * 2|3 2 1 3 5|4|
"^Left hand thumb on G, right hand thumb on A" z2 c2 c2 B2 | A4 e4 | d2 e2 d2 c2 | G4 d4 | %20
w: I won't be|si- lenced,|You can't keep me|qui- et,|
w: C C B|A E|D E D C|G D|
w: do do ti|la mi|re mi re do|so re|
w: 3 3 2|1 5|4 5 4 3|1 4|
 c2 d>d c2 G2 | G4 A2 cB | A2 cB A2 c2 | B2 A6- | A2 z2 z4 |] %25
w: Won't trem- ble if you|try it, All I|know is I won't go|speech- less.||
w: C D D C G|G A C B|A C B A C|B A||
w: do re re do so|so la do ti|la do ti la do|ti la||
w: 3 4 4 3 1|1 1 3 2|1 3 2 1 3|2 1||

